X:1
%% Copyright 1946 Atlantic Music Corp.
T:Yardbird Suite
M:4/4
L:1/8
C:Charlie Parker
Q:1/4=224
K:C
%%text (medium)
%%vskip 20
P:A
"C6"zc3 G2A2 | "Fm7"_B3_A- "Bb7"A_EFG- | "C6"G4 "Bb7"G3E- | "A7"E3E FEFG |
"D7"EC zC- C4 | "G7"z3D zEFG- | "Em7"G3A- "A7"AEFG- | "Dm7 G7"G6z2 ||
P:A
"C6"zc3 G2A2 | "Fm7"_B3_A- "Bb7"A_EFG- | "C6"G4 "Bb7"G3E- | "A7"E3E FEFG |
"D7"EC zC- C4 | "G7"z3C ECEC- | "C6"C8 | "F#m7b5"z4 "B7"z2(3G/A/G/^F |
P:B
"Em6"E3^F GE2A | "F#m7b5 B7"zAA6 | "Em7"GAG^F EB,C^C- | "A7"C4 z3_B, |
"Dm6"A,3A zEFG | "Em7b5"zG3 "A7"FED^C | "D7"EA, zE- E3A, | "G7"DEFG z4 ||
P:A
"C6"zc3 G2A2 | "Fm7"_B3_A- "Bb7"A_EFG- | "C6"G4 "Bb7"G3E- | "A7"E2EF z^DEA |
"D7"zA-A6 | "G7"zA, (3B,CD E2G,C- | "C6"C6z2 | "T.A."z8 |]
